svgs/regular/grip.svg

<svg xmlns="http://www.w3.org/2000/svg" viewBox="0 0 448 512"><!--! Font Awesome Pro 6.4.2 by @fontawesome - https://fontawesome.com License - https://fontawesome.com/license (Commercial License) Copyright 2023 Fonticons, Inc. --><path d="M408 376l0-48-48 0 0 48 48 0zm40 0c0 22.1-17.9 40-40 40l-48 0c-22.1 0-40-17.9-40-40l0-48c0-22.1 17.9-40 40-40l48 0c22.1 0 40 17.9 40 40l0 48zM408 184l0-48-48 0 0 48 48 0zm40 0c0 22.1-17.9 40-40 40l-48 0c-22.1 0-40-17.9-40-40l0-48c0-22.1 17.9-40 40-40l48 0c22.1 0 40 17.9 40 40l0 48zM200 376l48 0 0-48-48 0 0 48zm48 40l-48 0c-22.1 0-40-17.9-40-40l0-48c0-22.1 17.9-40 40-40l48 0c22.1 0 40 17.9 40 40l0 48c0 22.1-17.9 40-40 40zm0-232l0-48-48 0 0 48 48 0zm40 0c0 22.1-17.9 40-40 40l-48 0c-22.1 0-40-17.9-40-40l0-48c0-22.1 17.9-40 40-40l48 0c22.1 0 40 17.9 40 40l0 48zM40 376l48 0 0-48-48 0 0 48zm48 40l-48 0c-22.1 0-40-17.9-40-40l0-48c0-22.1 17.9-40 40-40l48 0c22.1 0 40 17.9 40 40l0 48c0 22.1-17.9 40-40 40zm0-232l0-48-48 0 0 48 48 0zm40 0c0 22.1-17.9 40-40 40l-48 0c-22.1 0-40-17.9-40-40l0-48c0-22.1 17.9-40 40-40l48 0c22.1 0 40 17.9 40 40l0 48z"/></svg>

<svg xmlns="http://www.w3.org/2000/svg" viewBox="0 0 448 512"><!--! Font Awesome Pro 6.1.1 by @fontawesome - https://fontawesome.com License - https://fontawesome.com/license (Commercial License) Copyright 2022 Fonticons, Inc. --><path d="M448 376C448 398.1 430.1 416 408 416H360C337.9 416 320 398.1 320 376V328C320 305.9 337.9 288 360 288H408C430.1 288 448 305.9 448 328V376zM408 328H360V376H408V328zM448 184C448 206.1 430.1 224 408 224H360C337.9 224 320 206.1 320 184V136C320 113.9 337.9 96 360 96H408C430.1 96 448 113.9 448 136V184zM408 136H360V184H408V136zM200 416C177.9 416 160 398.1 160 376V328C160 305.9 177.9 288 200 288H248C270.1 288 288 305.9 288 328V376C288 398.1 270.1 416 248 416H200zM200 376H248V328H200V376zM288 184C288 206.1 270.1 224 248 224H200C177.9 224 160 206.1 160 184V136C160 113.9 177.9 96 200 96H248C270.1 96 288 113.9 288 136V184zM248 136H200V184H248V136zM40 416C17.91 416 0 398.1 0 376V328C0 305.9 17.91 288 40 288H88C110.1 288 128 305.9 128 328V376C128 398.1 110.1 416 88 416H40zM40 376H88V328H40V376zM128 184C128 206.1 110.1 224 88 224H40C17.91 224 0 206.1 0 184V136C0 113.9 17.91 96 40 96H88C110.1 96 128 113.9 128 136V184zM88 136H40V184H88V136z"/></svg>
